dist/svgs/crypto-icons/icons/pink.svg

<?xml version="1.0" encoding="UTF-8" standalone="yes"?>
<svg xmlns="http://www.w3.org/2000/svg" xmlns:xlink="http://www.w3.org/1999/xlink" width="512px" height="512px" viewBox="0 0 384 384" version="1.1">
  <g id="surface1">
    <path style=" stroke:none;fill-rule:nonzero;fill:rgb(0%,0%,0%);fill-opacity:1;" d="M 197.242188 0 C 111.308594 0 41.445312 69.863281 41.445312 155.800781 L 41.445312 383.492188 L 95.914062 383.492188 L 95.914062 274.042969 C 123.152344 297.386719 158.675781 311.597656 197.242188 311.597656 C 283.179688 311.597656 353.042969 241.734375 353.042969 155.800781 C 353.042969 69.863281 283.179688 0 197.242188 0 Z M 197.242188 257.296875 C 141.25 257.296875 95.914062 211.792969 95.914062 155.96875 C 95.914062 100.144531 141.421875 54.640625 197.242188 54.640625 C 253.066406 54.640625 298.574219 100.144531 298.574219 155.96875 C 298.574219 211.792969 253.238281 257.296875 197.242188 257.296875 Z M 197.242188 257.296875 "/>
  </g>
</svg>

<svg xmlns="http://www.w3.org/2000/svg" viewBox="0 0 384 384"><path d="M197.242 0C111.31 0 41.445 69.863 41.445 155.8v227.692h54.47V274.043c27.237 23.344 62.76 37.555 101.327 37.555 85.938 0 155.801-69.864 155.801-155.797C353.043 69.863 283.18 0 197.243 0zm0 257.297c-55.992 0-101.328-45.504-101.328-101.328 0-55.824 45.508-101.328 101.328-101.328 55.824 0 101.332 45.504 101.332 101.328 0 55.824-45.336 101.328-101.332 101.328zm0 0"/></svg>
